usr/share/icons/biglinux-icons-material/22/actions/know.svg

<svg xmlns="http://www.w3.org/2000/svg" viewBox="0 0 22 22">
  <defs id="defs3051">
    <style type="text/css" id="current-color-scheme">
      .ColorScheme-Text {
        color:#363636;
      }
      .ColorScheme-Highlight {
        color:#3daee9;
      }
      </style>
  </defs>
 <path 
     style="fill:currentColor;fill-opacity:1;stroke:none" 
     d="M 10.96875 3 C 9.21782 3 7.56187 3.4216019 6 4.2636719 L 6.7773438 6.0507812 C 7.5582637 5.6672613 8.2600456 5.3933025 8.8847656 5.2265625 C 9.5177356 5.0598325 10.162692 4.9765625 10.820312 4.9765625 C 11.806753 4.9765625 12.563734 5.1968119 13.089844 5.6386719 C 13.615944 6.0805419 13.878906 6.7136725 13.878906 7.5390625 C 13.878906 7.9809325 13.822111 8.369625 13.707031 8.703125 C 13.591951 9.036605 13.394724 9.369635 13.115234 9.703125 C 12.835754 10.036615 12.247563 10.586476 11.351562 11.353516 C 10.251483 12.356846 9.10046 14.139 9 16 L 11 16 L 10.994141 15.96875 C 10.994141 15.21007 11.125612 14.601138 11.388672 14.142578 C 11.659952 13.675688 12.201805 13.087576 13.015625 12.378906 C 14.010295 11.536836 14.673153 10.903726 15.001953 10.478516 C 15.338993 10.053316 15.589506 9.6041363 15.753906 9.1289062 C 15.918406 8.6536762 16 8.1071944 16 7.4902344 C 16 6.0728944 15.55227 4.97119 14.65625 4.1875 C 13.76024 3.39546 12.53061 3 10.96875 3 z M 9 17 L 9 19 L 11 19 L 11 17 L 9 17 z "
     class="ColorScheme-Text"
     />
 <path 
     style="fill:currentColor;fill-opacity:1;stroke:none" 
     d="M 19.306641 13 L 14.814453 17.591797 L 13.691406 16.445312 L 13 17.152344 L 14.806641 19 L 14.8125 18.992188 L 14.820312 19 L 20 13.707031 L 19.308594 13 L 19.306641 13 z "
     class="ColorScheme-Highlight"
     />
</svg>

<svg xmlns="http://www.w3.org/2000/svg" viewBox="0 0 22 22"><path d="M10.969 3C9.218 3 7.562 3.422 6 4.264l.777 1.787c.781-.384 1.483-.658 2.108-.824a7.566 7.566 0 0 1 1.935-.25c.987 0 1.744.22 2.27.662.526.442.789 1.075.789 1.9 0 .442-.057.83-.172 1.164a3.198 3.198 0 0 1-.592 1c-.28.334-.867.883-1.763 1.65C10.252 12.358 9.1 14.14 9 16h2l-.006-.031c0-.759.132-1.368.395-1.826.271-.467.813-1.055 1.627-1.764.994-.842 1.657-1.475 1.986-1.9.337-.426.588-.875.752-1.35.164-.475.246-1.022.246-1.639 0-1.417-.448-2.519-1.344-3.303C13.76 3.396 12.531 3 10.97 3zM9 17v2h2v-2H9z" style="fill:currentColor;fill-opacity:1;stroke:none;color:#dedede"/><path d="m19.307 13-4.493 4.592-1.123-1.147-.691.707L14.807 19l.005-.008.008.008L20 13.707 19.309 13h-.002z" style="fill:currentColor;fill-opacity:1;stroke:none;color:#3daee9"/></svg>
